X:1
T:Plaisir d'amour
T:MARTINI
T:Plaisir d'amour
T:Violoncelle 2
C:MARTINI
L:1/8
Q:1/4=71
M:6/8
K:G
V:1 bass nm="Violoncelle" snm="Vlc"
V:1
 z6 | z6 | z6 | z6 | z6 | z6 | z6 | z2 z z2!mf! B,, | B,,3 D,3 | G,3- G, z G, | A,2 A, (G,D,)G, | %11
 F,3- F, z D, | ^C,3 =C,3 | B,,D,G, C,E,A, | (G,3 D,3) | B,,3 z2 z | z6 | z6 | z6 | z6 | %20
 z2 z z2 G, || B,3 C3 | B,CD{/F} EDC | (B,3 A,3) | G,3- G, z z | A,3 A,2 A, | G,2 A, (B,A,)G, | %27
 F,3 A,3 | F,3- F, z C, || B,,3 D,3 | G,3- G, z G, | A,2 A, (G,D,)G, | F,3- F, z D, | ^C,3 =C,3 | %34
 B,,D,G, C,E,A, | G,3 F,2 F, | G,3 z2 z ||[K:Bb]!p! G,3 G,2 G, | ^F,3 F,2 F, | G,3 G,2 G, | %40
 ^F,3 z2 z |"_cresc." z D,G,- G,F,A, | (B,A,)B, (CD)E |!mf! (B,3 A,2) z | z6 | z6 | B,3 (B,C)D | %47
 E3- E z z | B,B,B, (B,C)D | C3 (CB,)A, | B,3- B,2 B, | A,2 A, (G,D,)G, | (G,3 ^F,2) || %53
[K:G]!mf! C, | B,,3 D,3 | G,3- G, z G, | A,2 A, (G,D,)G, | F,3- F, z D, | ^C,3 =C,3 | %59
 B,,D,G, C,E,A, | (G,3 F,2 F,) | G,3 z2 z | z6 | z6 | z6 | z6 | z6 |] %67

